X: 12757
T: Father O'Flynn
R: jig
M: 6/8
K: Dmajor
|:A|"D"dAF DFA|"G"ded "A"cBA|"D"dcd efg|"Bm"fdf "A"ecA|
"D"dAF DFA|"G"ded "A"cBA|"G"dcd "A"efg|"D"fdc d2:|
|:g|"D"fdf fga|"A"ecA ABc|"Bm"dcd Bed|"A"cAA A2c|
"G"BGB Bcd|"D"AFD DFA|"G"dcd "A"efg|1 "Bm"fdf "A"e2:|2 "D"fdc d2||

